fs/text_line_spacing_20_filled.svg

<svg viewBox="0 0 20 20" fill="none" xmlns="http://www.w3.org/2000/svg" height="1em" width="1em">
  <path d="M17.7803 4.21967C18.0732 4.51256 18.0732 4.98744 17.7803 5.28033C17.4874 5.57322 17.0126 5.57322 16.7197 5.28033L16 4.56066V8.25C16 8.66421 15.6642 9 15.25 9C14.8358 9 14.5 8.66421 14.5 8.25V4.56066L13.7803 5.28033C13.4874 5.57322 13.0126 5.57322 12.7197 5.28033C12.4268 4.98744 12.4268 4.51256 12.7197 4.21967L14.7197 2.21967C15.0126 1.92678 15.4874 1.92678 15.7803 2.21967L17.7803 4.21967ZM3 4.25C3 3.83579 3.33579 3.5 3.75 3.5H9.25C9.66421 3.5 10 3.83579 10 4.25C10 4.66421 9.66421 5 9.25 5H3.75C3.33579 5 3 4.66421 3 4.25ZM15.25 11C15.6642 11 16 11.3358 16 11.75V15.4393L16.7197 14.7197C17.0126 14.4268 17.4874 14.4268 17.7803 14.7197C18.0732 15.0126 18.0732 15.4874 17.7803 15.7803L15.7803 17.7803C15.4874 18.0732 15.0126 18.0732 14.7197 17.7803L12.7197 15.7803C12.4268 15.4874 12.4268 15.0126 12.7197 14.7197C13.0126 14.4268 13.4874 14.4268 13.7803 14.7197L14.5 15.4393V11.75C14.5 11.3358 14.8358 11 15.25 11ZM3 9.25C3 8.83579 3.33579 8.5 3.75 8.5H11.25C11.6642 8.5 12 8.83579 12 9.25C12 9.66421 11.6642 10 11.25 10H3.75C3.33579 10 3 9.66421 3 9.25ZM3.75 13.5C3.33579 13.5 3 13.8358 3 14.25C3 14.6642 3.33579 15 3.75 15H9.25C9.66421 15 10 14.6642 10 14.25C10 13.8358 9.66421 13.5 9.25 13.5H3.75Z" fill="#212121"/>
</svg>

<svg viewBox="0 0 20 20" fill="none" xmlns="http://www.w3.org/2000/svg" height="1em" width="1em">
  <path d="M17.78 4.22a.75.75 0 0 1-1.06 1.06L16 4.56v3.69a.75.75 0 0 1-1.5 0V4.56l-.72.72a.75.75 0 1 1-1.06-1.06l2-2a.75.75 0 0 1 1.06 0l2 2ZM3 4.25a.75.75 0 0 1 .75-.75h5.5a.75.75 0 0 1 0 1.5h-5.5A.75.75 0 0 1 3 4.25ZM15.25 11a.75.75 0 0 1 .75.75v3.69l.72-.72a.75.75 0 1 1 1.06 1.06l-2 2a.75.75 0 0 1-1.06 0l-2-2a.75.75 0 1 1 1.06-1.06l.72.72v-3.69a.75.75 0 0 1 .75-.75ZM3 9.25a.75.75 0 0 1 .75-.75h7.5a.75.75 0 0 1 0 1.5h-7.5A.75.75 0 0 1 3 9.25Zm.75 4.25a.75.75 0 0 0 0 1.5h5.5a.75.75 0 0 0 0-1.5h-5.5Z" fill="#212121"/>
</svg>
